!!!!SEGMENT: pl-cz--iii-370--001-002_krogulski-jozef-wladyslaw--msza-c-gloria.krn
!!!cenid: 18xx:939
!!!COM: Krogulski, Józef Władysław
!!!COM-rismid: pe30001797
!!!CDT: 1815/10/04-1842/01/09
!!!CNT: Polish
!!!OPR: Msza C
!!!OTL: Gloria
!!!OMV: 002
!!!PDT:
!!!AGN: Sacred; Mass
!!!SMS-siglum: PL-CZ
!!!SMS-shelfmark: III-370
!!!SMS-shelfwork: 001-002 M
!!!SMS-variant:
!!!SMS-altvar:
!!!NIFC-rismid: 300000646
!!!URL-scan: http://repozytorium.nifc.pl/skany/pl-cz-nut--iii-370
!!!ONB-nifc: UWAGA: części Mszy: Kyrie, Gloria, Andante przed Ewangelią, Credo, Offertorium, Sanctus, Benedictus, Agnus, Na Benedykcyią
!!!key: G
**kern	**kern	**dynam	**kern	**text	**dynam	**kern	**text	**dynam	**kern	**text
*part4	*part4	*part4	*part3	*part3	*part3	*part2	*part2	*part2	*part 1	*part1
*staff5	*staff4	*	*staff3	*staff3	*	*staff2	*staff2	*	*staff1	*staff1
*I"Organ	*I"Organ	*	*I"Bas	*	*	*I"Spiew Drugi	*	*	*I"Spiew Pierwszy	*
*I'org	*I'org	*	*I'B	*	*	*I'S 2	*	*	*I'S 1	*
*Iorgan	*Iorgan	*	*Ibass	*	*	*Isoprn	*	*	*Isoprn	*
*ICklav	*ICklav	*	*ICvox	*	*	*ICvox	*	*	*ICvox	*
*IGacmp	*IGacmp	*	*	*	*	*	*	*	*	*
*>[A,A,B]	*>[A,A,B]	*>[A,A,B]	*>[A,A,B]	*>[A,A,B]	*>[A,A,B]	*>[A,A,B]	*>[A,A,B]	*>[A,A,B]	*>[A,A,B]	*>[A,A,B]
*>A	*>A	*>A	*>A	*>A	*>A	*>A	*>A	*>A	*>A	*>A
*clefF4	*clefG2	*	*clefF4	*	*	*clefG2	*	*	*clefG2	*
*k[f#]	*k[f#]	*	*k[]	*	*	*k[]	*	*	*k[f#]	*
*G:	*G:	*	*G:	*	*	*G:	*	*	*G:	*
*M4/4	*M4/4	*	*M4/4	*	*	*M4/4	*	*	*M4/4	*
*met(c)	*met(c)	*	*met(c)	*	*	*met(c)	*	*	*met(c)	*
=1	=1	=1	=1	=1	=1	=1	=1	=1	=1	=1
*all\right	*all\right	*	*all\right	*	*	*all\right	*	*	*all\right	*
*	*2\right	*	*2\right	*	*	*2\right	*	*	*2\right	*
!	!LO:TX:a:t=Allegro	!	!LO:TX:t=P:problem:brak znaku przykluczowego	!	!LO:DY:a:t=for	!LO:TX:t=P:problem:brak znaku przykluczowego	!	!LO:DY:a:t=for	!	!
[1G 1GG	2dd 2b\	f	2G\	To-	f	2b\	To-	f	2dd\	To-
.	4gg 4b\	.	4G\	-bie	.	4b\	-bie	.	4gg\	-bie
.	4ee 4cc\	.	4G\	cześć	.	4cc\	cześć	.	4ee\	cześć
=2	=2	=2	=2	=2	=2	=2	=2	=2	=2	=2
2G] 2GG/	2dd 2b\	.	4G\	to-	.	4.b\	to-	.	4.dd\	to-
.	.	.	4G\	-bie	.	.	.	.	.	.
.	.	.	.	.	.	8b\	-bie	.	8dd\	-bie
4C/	4cc 4a\	.	4C\	chwa-	.	4a\	chwa-	.	4cc\	chwa-
!	!	!	!	!	!	!LO:SIC:v:s=4f#/	!	!	!	!
4D/	4a 4f#\	.	4D\	-ła	.	4f/	-ła	.	4a\	-ła
=3	=3	=3	=3	=3	=3	=3	=3	=3	=3	=3
4G\	2b 2g\	.	4G\	wszech-	.	4g/	wszech-	.	4b\	wszech-
4E\	.	.	4E\	-mo-	.	4g/	-mo-	.	4b\	-mo-
4.C/	8eeL 8cc\	.	4.C\	-gą-	.	8cc\L	-gą-	.	(8ee\L	-gą-
.	8dd 8b\	.	.	.	.	8b\	.	.	8dd\	.
.	8cc 8a\	.	.	.	.	8a\J	.	.	8cc\J)	.
8C#X/	8bJ 8g\	.	8C#X\	-cy	.	8g/	-cy	.	8b\	-cy
=4	=4	=4	=4	=4	=4	=4	=4	=4	=4	=4
*2\right	*	*	*	*	*	*	*	*	*	*
2D\	2b 2g\	.	2D\	Bo-	.	2g/	Bo-	.	2b\	Bo-
8D\	8a 8f#/	.	8D\	-że	.	8g/	-że	.	8a\	-że
8r	8r	.	8r	.	.	8r	.	.	8r	.
!	!	!	!	!	!	!LO:LB:g=original	!	!	!	!
!	!	!	!	!	!	!LO:SIC:v:s=4f#/	!	!	!	!
4D 4DD/	4a 4f#/	.	4D\	Coś	.	4f/	Coś	.	4a\	Coś
=5	=5	=5	=5	=5	=5	=5	=5	=5	=5	=5
!	!	!	!	!	!	!LO:SIC:v:s=4f#/	!	!	!	!
1D 1DD	4a 4f#/	.	4D\	stwo-	.	4f/	stwo-	.	4a\	stwo-
!	!	!	!LO:LB:g=original	!	!	!	!	!	!	!
.	4b 4g/	.	4D\	-rzył	.	4g/	-rzył	.	4b\	-rzył
.	4cc 4a/	.	4D\	wszy-	.	4a/	wszy-	.	4cc\	wszy-
*	*	*	*	*	*	*	*	*	*	*above
!	!	!	!	!	!	!LO:SIC:v:s=4f#/	!	!	!	!
.	4a 4f#/	.	4D\	-(s)tkie	.	4f/	-stkie	.	4a\	-stkie
=6	=6	=6	=6	=6	=6	=6	=6	=6	=6	=6
*	*	*	*	*	*	*	*	*	*	*below
1G 1GG	4.b 4.g\	.	2G\	rze-	.	(4.g/	rze-	.	(4.b\	rze-
.	8cc 8a\	.	.	.	.	8a/)	.	.	8cc\	.
.	4dd 4b\	.	8G\	-czy	.	8b/	-czy	.	8dd\)	-czy
.	.	.	8r	.	.	8r	.	.	8r	.
.	4dd 4b\	.	4G\	i	.	4b\	i	.	4dd	i
=7	=7	=7	=7	=7	=7	=7	=7	=7	=7	=7
!	!	!	!	!	!	!	!	!	!LO:TX:a:t=wi\n=	!
2E\	2gg 2b\	.	2E\	rzą-	.	2b\	rzą-	.	2gg\	rzą-
!LO:LB:g=original	!LO:LB:g=original	!	!	!	!	!	!	!	!LO:TX:aq:t==	!
4E\	8ff#L 8a\	.	4E\	-dzisz	.	8a/L	-dzisz	.	8ff#L\	-dzisz
.	8ee 8g\	.	.	.	.	8g/J	.	.	8eeJ\	.
!	!	!	!	!	!	!LO:SIC:v:s=8f#/L	!	!	!	!
4A\	8dd 8f#\	.	4A\	wszy-	.	8f/L	wszy	.	8ddL\	wszy
.	8cc#XJ 8e\	.	.	.	.	8e/J	.	.	8cc#J\	.
!	!	!	!	!	!	!	!	!	!LO:LB:g=original	!
=8	=8	=8	=8	=8	=8	=8	=8	=8	=8	=8
2AA/	2ee 2cc#X 2g\	.	2A\	-stkie-	.	2g/	-stkie-	.	2ee\	-stkie-
!	!	!	!	!	!	!LO:SIC:v:s=4f#/	!	!	!	!
4D\	8ddL 8f#\	.	4D\	-mi	.	4f/	-mi	.	4dd\	-mi
.	8a 8f#\	.	.	.	.	.	.	.	.	.
4r	8b 8g\	.	4r	.	.	4r	.	.	4r	.
.	8ccnJ 8a\	.	.	.	.	.	.	.	.	.
=9	=9	=9	=9	=9	=9	=9	=9	=9	=9	=9
2G 2GG\	4.dd 4.b\	.	4G\	od-	.	4.b/	od-	.	4.dd\	od-
.	.	.	4G\	-wroc	.	.	.	.	.	.
.	8cc 8a\	.	.	.	.	8a/	-wroc	.	8cc\	-wroc
!	!	!	!	!	!	!LO:LB:g=original	!	!	!	!
2ryy	4b 4g\	.	4G\	od	.	4g/	od	.	4b\	od
.	8ccL 8a\	.	8G\	nas	.	8a/	nas	.	8cc\	nas
.	8ddJ 8b\	.	8G\	co	.	8b/	co	.	8dd\	co
=10	=10	=10	=10	=10	=10	=10	=10	=10	=10	=10
2C\	2.ee 2.cc\	.	2C/	po-	.	2.cc\	po-	.	2.ee\	po-
4E\	.	.	(4E/	-koj	.	.	.	.	.	.
4G\	4dd 4b\	.	4G/)	.	.	4b\	-koj	.	4dd\	-koj
!	!	!	!LO:LB:g=original	!	!	!	!	!	!	!
=11	=11	=11	=11	=11	=11	=11	=11	=11	=11	=11
2D/	4cc 4a\	.	4D\	du-	.	4a/	du-	.	4cc\	du-
.	4b 4g\	.	4D\	-szy	.	4g/	-szy	.	4b\	-szy
!	!	!	!	!	!	!LO:SIC:v:s=8f#/L	!	!	!	!
4DD/	8aL 8f#\	.	4D\	mie-	.	8f/L	mie-	.	8aL\	mie-
.	8b 8g\	.	.	.	.	8g/	.	.	8b\	.
4D\	8cc 8a\	.	4D\	-szać	.	8a/J	.	.	8ccJ\	.
.	8ddJ 8b\	.	.	.	.	8b/	-szac	.	8dd\	-szać
=12	=12	=12	=12	=12	=12	=12	=12	=12	=12	=12
2F# 2DD/	2cc 2a 2f#\	.	2D\	mo-	.	2a/	mo-	.	2cc\	mo-
4G 4GG\	4b 4g\	.	8G\	-ze	.	8g/	-ze	.	8b\	-ze
.	.	.	8r	.	.	8r	.	.	8r	.
4B 4BB\	4dd 4g\	.	4B\	i	.	4g/	j	.	4dd\	j
=13	=13	=13	=13	=13	=13	=13	=13	=13	=13	=13
*	*^	*	*	*	*	*	*	*	*	*
2c 2C\	2ee\	1g	.	2c\	spraw	.	2g/	spraw	.	2ee\	spraw
2B 2BB\	2dd/	.	.	2B\	niech	.	2g/	niech	.	2dd\	niech
*	*v	*v	*	*	*	*	*	*	*	*	*
=14	=14	=14	=14	=14	=14	=14	=14	=14	=14	=14
2c 2C\	2ee 2g\	.	2c\	po-	.	2g/	po-	.	2ee\	po-
!LO:LB:g=original	!LO:LB:g=original	!	!	!	!	!	!	!	!	!
2c 2C\	4ee 4cc\	.	4c\	-koj	.	4cc\	-koj	.	4ee\	-koj
.	4cc 4a\	.	4c\	za-	.	4a\	za-	.	4cc\	za-
!	!	!	!	!	!	!LO:LB:g=original	!	!	!	!
=15	=15	=15	=15	=15	=15	=15	=15	=15	=15	=15
2d 2D\	2cc 2g/	.	2d\	-kwi-	.	2g/	-kwi-	.	2b\	-kwi-
!	!	!	!	!	!	!LO:SIC:v:s=4f#/	!	!	!LO:LB:g=original	!
2D 2DD/	4dd 4a 4f#/	.	4D/	-tnie	.	4f/	-tnie	.	4dd\	-tnie
*	*	*	*	*above	*	*	*	*	*	*
!	!	!	!	!	!	!LO:SIC:v:s=4f#/	!	!	!	!
.	4cc 4a 4f#/	.	4D/	na	.	4f/	na	.	4cc\	na
=16	=16	=16	=16	=16	=16	=16	=16	=16	=16	=16
*	*	*	*	*below	*	*	*	*	*	*
2D#X 2DD/	2cc 2a 2f#/	.	2D#X/	zie-	.	2a/	zie-	.	2cc\	zie-
8E 8EE/	8b 8g/	.	8E/	-mi	.	8g/	-mi	.	8b\	-mi
8r	8r	.	8r	.	.	8r	.	.	8r	.
4E\	4b 4g/	.	4E\	i	.	4g/	i	.	4b\	i
!	!	!	!LO:LB:g=original	!	!	!	!	!	!	!
=17	=17	=17	=17	=17	=17	=17	=17	=17	=17	=17
*	*^	*	*	*	*	*	*	*	*	*
4C/	4ee/	2.g\	.	4C/	spraw	.	2.g/	spraw	.	(4ee\	spraw
4BB/	4dd/	.	.	4BB/	.	.	.	.	.	4dd\	.
4C/	4ee/	.	.	4C/	niech	.	.	.	.	4ee\	.
4D#X/	4ff# 4cc/	4ryy	.	4D/	.	.	4b\	niech	.	4ff#\)	niech
*	*v	*v	*	*	*	*	*	*	*	*	*
=18	=18	=18	=18	=18	=18	=18	=18	=18	=18	=18
2E\	2gg 2b\	.	2E/	po-	.	2b\	po-	.	2gg\	po-
2C\	4gg 4ee\	.	4C/	-koj	.	4ee\	-koj	.	4gg\	-koj
.	4ee 4cc\	.	4C/	za-	.	4cc\	za-	.	4ee\	za-
=19	=19	=19	=19	=19	=19	=19	=19	=19	=19	=19
!LO:N:vis=2	!	!	!	!	!	!	!	!	!	!
[1D\	2dd 2b\	.	2D/	-kwit-	.	2b\	-kwit-	.	2dd\	-kwit-
.	4cc 4a\	.	4D/	-nie	.	4a\	-nie	.	4cc\	-nie
!	!	!	!	!	!	!LO:SIC:v:s=4f#/	!	!	!	!
.	4a 4f# 4c/	.	4D/	na	.	4f/	na	.	4a\	na
=20	=20	=20	=20	=20	=20	=20	=20	=20	=20	=20
!	!	!	!	!	!	!LO:SIC:v:s=2f#/	!	!	!	!
2D\]	2a 2f# 2c/	.	2D/	zie-	.	2f/	zie-	.	2a\	zie-
4G\	4g 4B/	.	4G/	-mi	.	4g/	-mi	.	4g\	-mi
4r	4r	.	4r	.	.	4r	.	.	4r	.
!	!	!	!	!	!	!LO:LB:g=original	!	!	!	!
=21:|!	=21:|!	=21:|!	=21:|!	=21:|!	=21:|!	=21:|!	=21:|!	=21:|!	=21:|!	=21:|!
*>B	*>B	*>B	*>B	*>B	*>B	*>B	*>B	*>B	*>B	*>B
*	*^	*	*	*	*	*	*	*	*	*
!	!	!	!	!	!	!	!LO:SIC:v:s=2f#/	!	!	!	!
2D\	2.dd/	2f#/	.	2D/	a-	.	2f/	a-	.	2.ee\	a-
4E\	.	4g/	.	4E/	.	.	4g/	.	.	.	.
!	!	!	!	!LO:SIC:v:s=4F#/	!	!	!	!	!	!	!
4F#\	4cc 4a/	4ryy	.	4F/	.	.	4a/	.	.	4cc\	.
*	*v	*v	*	*	*	*	*	*	*	*	*
=22	=22	=22	=22	=22	=22	=22	=22	=22	=22	=22
2G\	2.b 2.g/	.	2G\	.	.	1g	.	.	2.b\	.
4E\	.	.	4E\	.	.	.	.	.	.	.
4C\	4ee 4g\	.	4C\	.	.	.	.	.	4ee\	.
=23	=23	=23	=23	=23	=23	=23	=23	=23	=23	=23
[1D 1DD	2dd 2b\	.	2D\	.	.	(2b\	.	.	2dd\	.
.	4cc 4a\	.	2D\	-men	.	4a/)	.	.	4cc\	.
!	!	!	!	!	!	!LO:SIC:v:s=4f#/	!	!	!	!
.	4a 4f# 4c/	.	.	.	.	4f/	-men	.	4a\	-men
=24	=24	=24	=24	=24	=24	=24	=24	=24	=24	=24
!	!	!	!	!	!	!LO:SIC:v:s=2f#/	!	!	!	!
2D] 2DD/	2a 2f# 2c/	.	2D\	a-	.	2f/	a-	.	2a/	a-
4G 4GG/	4g 4B/	.	4G\	-m(en)	.	4g/	-men	.	4g/	-(men)
4ryy	4ryy	.	4r	.	.	4r	.	.	4r	.
==	==	==	==	==	==	==	==	==	==	==
*-	*-	*-	*-	*-	*-	*-	*-	*-	*-	*-
!!!system-decoration: [(s1,s2,s3)]{(s4,s5)}
!!!AIN: 1 bass 1 organ 2 soprn
!!!ENC: Tomasz Grochalski
!!!END: 2020-08-28
!!!ENC: Marta Lawrence
!!!END: 2021-11-08
